X:44
T:Concertina Reel, The  
B:CRE2.210 (gan ainm)
F:file ID: cre.2/044concer
M:C
R:reel
Q:180
K:D
dB|:A2AA BAFA|A2FA BAFA|B2cA BAcA|BAcA BAFA|
A2FA BAFA|A2FA BAFE|FABc d2dB|1 AFEF D3F:|2 AFEF D3z||
Addd Addd|Addd BAFA|B2cA BAcA|BAcA BAFA|
Addd Addd|AD (3dcd BAFE|FABc d2dB|AFEF D4|]

%%%

